; generated by PrusaSlicer 2.9.3 on 2026-05-19 at 18:13:41 UTC

; 

; external perimeters extrusion width = 0.45mm
; perimeters extrusion width = 0.45mm
; infill extrusion width = 0.45mm
; solid infill extrusion width = 0.45mm
; top infill extrusion width = 0.40mm
; first layer extrusion width = 0.42mm

;TYPE:Custom
; Ender 3 Custom Start G-code
G92 E0 ; Reset Extruder
G28 ; Home all axes
M420 S1
M104 S150  ; start extruder heating
M190 S60 ; set bed temp
M140 S60  ;wait for bed temp
M109 S225  ; Wait for all used extruders to reach temperature
G1 Z2.0 F3000 ; Move Z Axis up little to prevent scratching of Heat Bed
G1 X5.1 Y20 Z0.3 F5000.0 ; Move to start position
G1 X5.1 Y200.0 Z0.3 F1500.0 E15 ; Draw the first line
G1 X5.4 Y200.0 Z0.3 F5000.0 ; Move to side a little
G1 X5.4 Y20 Z0.3 F1500.0 E30 ; Draw the second line
G92 E0 ; Reset Extruder
G1 Z2.0 F3000 ; Move Z Axis up little to prevent scratching of Heat Bed
G1 X5 Y20 Z0.3 F5000.0 ; Move over to prevent blob squish
G21 ; set units to millimeters
G90 ; use absolute coordinates
M82 ; use absolute distances for extrusion
G92 E0
; Filament gcode
M107
;LAYER_CHANGE
;Z:0.25
;HEIGHT:0.25
G1 E-1 F1200
G92 E0
G1 Z.25 F7800
G92 E0
G1 X115.662 Y111.155
G1 E1 F1200
;TYPE:Perimeter
;WIDTH:0.419999
G1 F1800
G1 X115.764 Y111.32 E1.00739
G1 X115.829 Y111.662 E1.02065
G1 X115.761 Y112.003 E1.03389
G1 X113.594 Y117.312 E1.25224
G1 X113.43 Y117.576 E1.26407
G1 X113.137 Y117.794 E1.27798
G1 X112.746 Y117.882 E1.29324
G1 X111.901 Y117.882 E1.32542
G1 X111.508 Y117.793 E1.34076
G1 X111.215 Y117.573 E1.35471
G1 X111.051 Y117.307 E1.36661
G1 X108.918 Y111.998 E1.58447
G1 X108.853 Y111.62 E1.59907
G1 X108.947 Y111.251 E1.61357
G1 X109.158 Y110.974 E1.62683
G1 X109.431 Y110.806 E1.63904
G1 X109.768 Y110.741 E1.65211
G1 X110.554 Y110.741 E1.68204
G1 X110.984 Y110.849 E1.69892
G1 X111.349 Y111.202 E1.71825
G1 X111.78 Y112.278 E1.76239
G1 X112.888 Y112.278 E1.80458
G1 X113.264 Y111.322 E1.8437
G1 X113.384 Y111.107 E1.85308
G1 X113.685 Y110.849 E1.86818
G1 X114.116 Y110.741 E1.8851
G1 X114.913 Y110.741 E1.91545
G1 X115.301 Y110.828 E1.93059
G1 X115.593 Y111.044 E1.94442
G1 X115.63 Y111.104 E1.9471
G1 X115.356 Y111.361 F7800
G1 F1800
G1 X115.454 Y111.562 E1.95561
G1 X115.454 Y111.752 E1.96284
G1 X115.422 Y111.865 E1.96731
G1 X113.255 Y117.173 E2.18562
G1 X113.156 Y117.332 E2.19275
G1 X112.981 Y117.463 E2.20107
G1 X112.746 Y117.515 E2.21023
G1 X111.901 Y117.515 E2.24241
G1 X111.665 Y117.462 E2.25162
G1 X111.489 Y117.33 E2.26
G1 X111.221 Y116.747 E2.28443
G1 X109.258 Y111.862 E2.4849
G1 X109.219 Y111.635 E2.49367
G1 X109.276 Y111.413 E2.5024
G1 X109.402 Y111.247 E2.51034
G1 X109.674 Y111.116 E2.52184
G1 X110.554 Y111.108 E2.55535
G1 X110.812 Y111.172 E2.56547
G1 X111.031 Y111.384 E2.57708
G1 X111.529 Y112.644 E2.62867
G1 X113.138 Y112.644 E2.68994
G1 X113.605 Y111.456 E2.73855
G1 X113.677 Y111.327 E2.74418
G1 X113.858 Y111.172 E2.75325
G1 X114.116 Y111.108 E2.76337
G1 X114.913 Y111.108 E2.79372
G1 X115.146 Y111.159 E2.8028
G1 X115.321 Y111.289 E2.8111
G1 X115.33 Y111.307 E2.81187
G1 X115.058 Y111.564 F7800
;TYPE:External perimeter
G1 F1800
G1 X115.093 Y111.689 E2.81681
G1 X115.082 Y111.726 E2.81828
G1 X112.916 Y117.035 E3.03661
G1 X112.825 Y117.132 E3.04167
G1 X111.901 Y117.149 E3.07686
G1 X111.764 Y117.087 E3.08259
G1 X109.598 Y111.725 E3.30279
G1 X109.604 Y111.576 E3.30847
G1 X109.646 Y111.521 E3.31111
G1 X109.768 Y111.474 E3.31609
G1 X110.554 Y111.474 E3.34602
G1 X110.7 Y111.547 E3.35224
G1 X111.279 Y113.011 E3.41219
G1 X113.387 Y113.011 E3.49246
G1 X113.946 Y111.59 E3.5506
G1 X114.03 Y111.495 E3.55543
G1 X114.913 Y111.474 E3.58906
G1 X115.023 Y111.523 E3.59365
G1 X114.996 Y111.922 F7800
G1 E2.59365 F1200
G92 E0
G1 X117.667 Y119.413 F7800
G1 E1 F1200
;TYPE:Perimeter
G1 F1800
G1 X117.573 Y119.449 E1.00383
G1 X107.443 Y119.449 E1.38956
G1 X107.328 Y119.429 E1.394
G1 X107.278 Y119.3 E1.39927
G1 X107.278 Y110.134 E1.74829
G1 X107.298 Y109.055 E1.78938
G1 X107.427 Y109.005 E1.79465
G1 X117.607 Y109.009 E2.18228
G1 X117.664 Y109.016 E2.18447
G1 X117.717 Y109.119 E2.18888
G1 X117.722 Y119.284 E2.57594
G1 X117.706 Y119.377 E2.57953
G1 X117.74 Y119.774 F7800
G1 F1800
G1 X117.609 Y119.815 E2.58476
G1 X107.443 Y119.815 E2.97186
G1 X107.177 Y119.773 E2.98211
G1 X106.999 Y119.616 E2.99115
G1 X106.912 Y119.336 E3.00231
G1 X106.912 Y109.17 E3.38941
G1 X106.954 Y108.904 E3.39966
G1 X107.111 Y108.726 E3.4087
G1 X107.391 Y108.639 E3.41986
G1 X117.607 Y108.643 E3.80886
G1 X117.813 Y108.675 E3.8168
G1 X118.025 Y108.855 E3.82739
G1 X118.083 Y109.119 E3.83768
G1 X118.088 Y119.284 E4.22474
G1 X118.046 Y119.549 E4.23496
G1 X117.889 Y119.728 E4.24403
G1 X117.798 Y119.757 E4.24767
G1 X117.815 Y120.148 F7800
;TYPE:External perimeter
G1 F1800
G1 X117.645 Y120.181 E4.25426
G1 X107.443 Y120.181 E4.64273
G1 X107.035 Y120.118 E4.65845
G1 X106.78 Y119.947 E4.67014
G1 X106.609 Y119.692 E4.68183
G1 X106.546 Y119.372 E4.69425
G1 X106.546 Y109.17 E5.08272
G1 X106.609 Y108.762 E5.09844
G1 X106.78 Y108.507 E5.11013
G1 X107.035 Y108.336 E5.12182
G1 X107.355 Y108.273 E5.13424
G1 X117.607 Y108.277 E5.52461
G1 X117.963 Y108.334 E5.53834
G1 X118.082 Y108.414 E5.5438
G1 X118.29 Y108.598 E5.55437
G1 X118.389 Y108.795 E5.56277
G1 X118.45 Y109.119 E5.57532
G1 X118.454 Y119.283 E5.96234
G1 X118.391 Y119.692 E5.9781
G1 X118.22 Y119.947 E5.98979
G1 X117.965 Y120.118 E6.00148
G1 X117.874 Y120.136 E6.00501
G1 X117.476 Y120.176 F7800
G1 E5.00501 F1200
G92 E0
G1 X117.607 Y109.872 F7800
G1 E1 F1200
;TYPE:Solid infill
;WIDTH:0.425549
G1 F1800
G1 X117.019 Y109.284 E1.03214
G1 X116.493 Y109.284 E1.05247
G1 X117.443 Y110.233 E1.10437
G1 X117.443 Y110.759 E1.1247
G1 X115.967 Y109.283 E1.20539
G1 X115.441 Y109.283 E1.22572
G1 X117.443 Y111.286 E1.33519
G1 X117.444 Y111.812 E1.35552
G1 X114.915 Y109.283 E1.49377
G1 X114.389 Y109.283 E1.5141
G1 X117.444 Y112.338 E1.6811
G1 X117.444 Y112.864 E1.70143
G1 X116.091 Y111.511 E1.77539
G1 X116.019 Y111.215 E1.78717
G1 X115.798 Y110.858 E1.8034
G1 X115.418 Y110.577 E1.82167
G1 X115.082 Y110.502 E1.83498
G1 X113.862 Y109.283 E1.90164
G1 X113.336 Y109.282 E1.92197
G1 X114.52 Y110.466 E1.98669
G1 X114.004 Y110.476 E2.00664
G1 X112.81 Y109.282 E2.07191
G1 X112.284 Y109.282 E2.09224
G1 X113.594 Y110.592 E2.16385
G1 X113.553 Y110.606 E2.16552
G1 X113.299 Y110.823 E2.17843
G1 X111.758 Y109.282 E2.26267
G1 X111.232 Y109.282 E2.283
G1 X113.066 Y111.116 E2.38326
G1 X112.906 Y111.482 E2.3987
G1 X110.706 Y109.281 E2.51899
G1 X110.179 Y109.281 E2.53936
G1 X112.757 Y111.859 E2.68029
G1 X112.701 Y112.003 E2.68626
G1 X112.375 Y112.003 E2.69886
G1 X109.653 Y109.281 E2.84766
G1 X109.127 Y109.281 E2.86799
G1 X110.313 Y110.466 E2.9328
G1 X109.787 Y110.466 E2.95313
G1 X108.601 Y109.28 E3.01796
G1 X108.075 Y109.28 E3.03829
G1 X109.341 Y110.547 E3.10752
G1 X109.013 Y110.744 E3.12231
G1 X107.553 Y109.284 E3.20212
G1 X107.553 Y109.81 E3.22245
G1 X108.774 Y111.031 E3.2892
G1 X108.701 Y111.127 E3.29386
G1 X108.613 Y111.396 E3.3048
G1 X107.553 Y110.336 E3.36275
G1 X107.553 Y110.862 E3.38308
G1 X108.612 Y111.921 E3.44097
G1 X108.662 Y112.096 E3.44801
G1 X108.931 Y112.766 E3.47592
G1 X107.553 Y111.388 E3.55125
G1 X107.553 Y111.914 E3.57158
G1 X109.284 Y113.645 E3.66621
G1 X109.637 Y114.524 E3.70282
G1 X107.553 Y112.44 E3.81674
G1 X107.553 Y112.966 E3.83707
G1 X109.99 Y115.403 E3.97029
G1 X110.343 Y116.282 E4.0069
G1 X107.388 Y113.327 E4.16844
G1 E3.16844 F1200
G92 E0
G1 X115.915 Y111.861 F7800
G1 E1 F1200
G1 F1800
G1 X117.444 Y113.39 E1.08358
G1 X117.444 Y113.917 E1.10395
G1 X115.905 Y112.377 E1.18811
G1 X115.753 Y112.751 E1.20372
G1 X117.445 Y114.443 E1.29621
G1 X117.445 Y114.969 E1.31654
G1 X115.6 Y113.124 E1.4174
G1 X115.448 Y113.498 E1.43301
G1 X117.445 Y115.495 E1.54218
G1 X117.445 Y116.021 E1.56251
G1 X115.295 Y113.871 E1.68004
G1 X115.143 Y114.245 E1.69565
G1 X117.446 Y116.547 E1.82152
G1 X117.446 Y117.074 E1.84189
G1 X114.99 Y114.618 E1.97615
G1 X114.838 Y114.992 E1.99176
G1 X117.446 Y117.6 E2.13433
G1 X117.446 Y118.126 E2.15466
G1 X114.686 Y115.365 E2.30556
G1 X114.533 Y115.739 E2.32118
G1 X117.447 Y118.652 E2.48045
G1 X117.447 Y119.174 E2.50063
G1 X114.381 Y116.112 E2.66813
G1 X114.228 Y116.486 E2.68375
G1 X116.917 Y119.174 E2.83072
G1 X116.391 Y119.174 E2.85105
G1 X114.076 Y116.859 E2.9776
G1 X113.923 Y117.233 E2.99322
G1 X115.865 Y119.174 E3.09935
G1 X115.339 Y119.174 E3.11968
G1 X113.747 Y117.582 E3.20671
G1 X113.635 Y117.761 E3.21487
G1 X113.5 Y117.861 E3.22136
G1 X114.813 Y119.174 E3.29314
G1 X114.287 Y119.174 E3.31347
G1 X113.18 Y118.067 E3.37398
G1 X112.954 Y118.139 E3.38315
G1 X112.743 Y118.157 E3.39134
G1 X113.761 Y119.174 E3.44696
G1 X113.235 Y119.174 E3.46729
G1 X112.053 Y117.992 E3.5319
G1 X112.874 Y119.339 F7800
G1 F1800
G1 X111.634 Y118.099 E3.59969
G1 X111.39 Y118.044 E3.60936
G1 X111.009 Y117.757 E3.6278
G1 X110.799 Y117.417 E3.64325
G1 X110.696 Y117.161 E3.65392
G1 X107.553 Y114.018 E3.82573
G1 X107.553 Y114.544 E3.84606
G1 X112.183 Y119.174 E4.09916
G1 X111.657 Y119.174 E4.11949
G1 X107.553 Y115.07 E4.34384
G1 X107.553 Y115.596 E4.36417
G1 X111.131 Y119.174 E4.55976
G1 X110.605 Y119.174 E4.58009
G1 X107.553 Y116.122 E4.74693
G1 X107.553 Y116.648 E4.76726
G1 X110.079 Y119.174 E4.90535
G1 X109.553 Y119.174 E4.92568
G1 X107.553 Y117.174 E5.03501
G1 X107.553 Y117.7 E5.05534
G1 X109.027 Y119.174 E5.13592
G1 X108.501 Y119.174 E5.15625
G1 X107.553 Y118.226 E5.20807
G1 X107.553 Y118.751 E5.22836
G1 X108.14 Y119.339 E5.26048
G1 E4.26048 F1200
G92 E0
G1 X112.368 Y114.389 F7800
G1 E1 F1200
;TYPE:Perimeter
;WIDTH:0.6143
G1 F1800
G1 X112.298 Y114.389 E1.00408
G1 X112.263 Y114.45 E1.00818
G1 X112.298 Y114.51 E1.01223
G1 X112.368 Y114.51 E1.01631
G1 X112.403 Y114.45 E1.02036
G1 X112.333 Y115.74 F7800
;TYPE:External perimeter
;WIDTH:0.419999
G1 F1800
G1 X111.655 Y113.986 E1.09196
G1 X113.008 Y113.986 E1.14348
G1 X112.765 Y114.616 E1.16919
G1 X112.354 Y115.684 E1.21276
G1 X112.169 Y115.33 F7800
;LAYER_CHANGE
;Z:0.55
;HEIGHT:0.3
G1 E.21276 F1200
G92 E0
G1 Z.55 F7800
G1 X115.708 Y111.123
G1 E1 F1200
;TYPE:Perimeter
;WIDTH:0.45
G1 F900
G1 X115.812 Y111.284 E1.00922
G1 X115.885 Y111.651 E1.02722
G1 X115.813 Y112.016 E1.04511
G1 X113.643 Y117.335 E1.32141
G1 X113.469 Y117.613 E1.33718
G1 X113.161 Y117.843 E1.35567
G1 X112.75 Y117.935 E1.37593
G1 X111.897 Y117.935 E1.41696
G1 X111.484 Y117.842 E1.43732
G1 X111.175 Y117.61 E1.4559
G1 X111.003 Y117.331 E1.47166
G1 X110.823 Y116.884 E1.49484
G1 X108.866 Y112.011 E1.74741
G1 X108.797 Y111.606 E1.76717
G1 X108.902 Y111.214 E1.78669
G1 X109.13 Y110.923 E1.80447
G1 X109.413 Y110.752 E1.82037
G1 X109.76 Y110.688 E1.83734
G1 X110.558 Y110.688 E1.87572
G1 X110.996 Y110.793 E1.89738
G1 X111.311 Y111.05 E1.91693
G1 X111.455 Y111.301 E1.93085
G1 X111.816 Y112.224 E1.97852
G1 X112.851 Y112.224 E2.0283
G1 X113.215 Y111.299 E2.07611
G1 X113.359 Y111.05 E2.08994
G1 X113.674 Y110.793 E2.10949
G1 X114.113 Y110.688 E2.1312
G1 X114.921 Y110.688 E2.17006
G1 X115.32 Y110.774 E2.18969
G1 X115.625 Y110.993 E2.20775
G1 X115.676 Y111.073 E2.21231
G1 X115.385 Y111.341 F7800
G1 F900
G1 X115.491 Y111.552 E2.22367
G1 X115.491 Y111.751 E2.23324
G1 X115.456 Y111.87 E2.23921
G1 X113.286 Y117.19 E2.51555
G1 X113.182 Y117.356 E2.52497
G1 X112.997 Y117.494 E2.53607
G1 X112.75 Y117.55 E2.54825
G1 X111.897 Y117.55 E2.58928
G1 X111.649 Y117.494 E2.60151
G1 X111.464 Y117.354 E2.61267
G1 X111.181 Y116.74 E2.64519
G1 X109.224 Y111.867 E2.89776
G1 X109.183 Y111.625 E2.90957
G1 X109.245 Y111.389 E2.92131
G1 X109.382 Y111.214 E2.932
G1 X109.661 Y111.082 E2.94685
G1 X110.557 Y111.073 E2.98995
G1 X110.82 Y111.137 E3.00297
G1 X111.054 Y111.356 E3.01838
G1 X111.553 Y112.61 E3.08329
G1 X113.114 Y112.61 E3.15837
G1 X113.574 Y111.44 E3.21884
G1 X113.66 Y111.291 E3.22711
G1 X113.849 Y111.137 E3.23884
G1 X114.113 Y111.073 E3.25191
G1 X114.921 Y111.073 E3.29077
G1 X115.16 Y111.125 E3.30253
G1 X115.343 Y111.256 E3.31335
G1 X115.359 Y111.287 E3.31503
G1 X115.072 Y111.555 F7800
;TYPE:External perimeter
G1 F900
G1 X115.111 Y111.685 E3.32156
G1 X115.099 Y111.725 E3.32357
G1 X112.929 Y117.044 E3.59987
G1 X112.832 Y117.146 E3.60664
G1 X111.897 Y117.164 E3.65162
G1 X111.753 Y117.099 E3.65922
G1 X111.539 Y116.596 E3.68551
G1 X109.581 Y111.724 E3.93805
G1 X109.589 Y111.564 E3.94576
G1 X109.727 Y111.462 E3.95401
G1 X110.557 Y111.459 E3.99393
G1 X110.708 Y111.531 E4.00198
G1 X111.289 Y112.996 E4.07778
G1 X113.377 Y112.996 E4.17821
G1 X113.933 Y111.581 E4.25133
G1 X114.025 Y111.48 E4.2579
G1 X114.921 Y111.459 E4.30101
G1 X115.04 Y111.511 E4.30726
G1 X115.016 Y111.91 F7800
G1 E3.30726 F1200
G92 E0
G1 X117.739 Y119.411 F7800
G1 E1 F1200
;TYPE:Perimeter
G1 F3600
G1 X117.738 Y119.415 E1.0002
G1 X117.655 Y119.431 E1.00427
G1 X107.356 Y119.431 E1.49962
G1 X107.262 Y119.415 E1.50421
G1 X107.245 Y119.331 E1.50833
G1 X107.245 Y109.032 E2.00368
G1 X107.262 Y108.938 E2.00827
G1 X107.345 Y108.921 E2.01234
G1 X117.699 Y108.924 E2.51033
G1 X117.75 Y108.982 E2.51404
G1 X117.755 Y119.32 E3.01126
G1 X117.749 Y119.352 E3.01283
G1 X117.821 Y119.778 F7800
G1 F3600
G1 X117.693 Y119.817 E3.01927
G1 X107.356 Y119.817 E3.51644
G1 X107.104 Y119.777 E3.52871
G1 X106.941 Y119.634 E3.53914
G1 X106.859 Y119.369 E3.55248
G1 X106.859 Y109.032 E4.04965
G1 X106.9 Y108.78 E4.06193
G1 X107.043 Y108.617 E4.07236
G1 X107.307 Y108.536 E4.08564
G1 X117.693 Y108.538 E4.58517
G1 X117.89 Y108.572 E4.59479
G1 X118.081 Y108.734 E4.60684
G1 X118.136 Y108.982 E4.61906
G1 X118.141 Y119.32 E5.11628
G1 X118.1 Y119.572 E5.12856
G1 X117.957 Y119.736 E5.13903
G1 X117.878 Y119.76 E5.143
G1 X117.899 Y120.169 F7800
;TYPE:External perimeter
G1 F1800
G1 X117.731 Y120.203 E5.15124
G1 X107.356 Y120.203 E5.65024
G1 X106.954 Y120.14 E5.66981
G1 X106.703 Y119.973 E5.68431
G1 X106.536 Y119.723 E5.69877
G1 X106.474 Y119.407 E5.71426
G1 X106.474 Y109.032 E6.21326
G1 X106.536 Y108.63 E6.23282
G1 X106.703 Y108.38 E6.24728
G1 X106.954 Y108.213 E6.26178
G1 X107.269 Y108.15 E6.27723
G1 X117.693 Y108.153 E6.77859
G1 X118.044 Y108.211 E6.7957
G1 X118.3 Y108.382 E6.81051
G1 X118.462 Y108.662 E6.82607
G1 X118.522 Y108.981 E6.84168
G1 X118.526 Y119.32 E7.33895
G1 X118.464 Y119.723 E7.35856
G1 X118.297 Y119.973 E7.37302
G1 X118.046 Y120.14 E7.38752
G1 X117.958 Y120.158 E7.39184
G1 X117.56 Y120.197 F7800
G1 X116.956 Y119.318
;TYPE:Top solid infill
;WIDTH:0.403704
G1 F900
G1 X117.491 Y118.783 E7.42386
G1 X117.49 Y118.304 E7.44413
G1 X116.627 Y119.167 E7.49578
G1 X116.147 Y119.167 E7.51609
G1 X117.49 Y117.824 E7.59647
G1 X117.49 Y117.344 E7.61678
G1 X115.667 Y119.167 E7.72589
G1 X115.187 Y119.167 E7.7462
G1 X117.49 Y116.865 E7.88401
G1 X117.489 Y116.385 E7.90432
G1 X114.707 Y119.167 E8.07083
G1 X114.227 Y119.167 E8.09114
G1 X117.489 Y115.905 E8.28638
G1 X117.489 Y115.426 E8.30665
G1 X113.747 Y119.167 E8.53059
G1 X113.268 Y119.167 E8.55086
G1 X117.489 Y114.946 E8.8035
G1 X117.489 Y114.466 E8.82381
G1 X112.788 Y119.167 E9.10518
G1 X112.308 Y119.167 E9.12549
G1 X117.488 Y113.987 E9.43553
G1 X117.488 Y113.507 E9.45584
G1 X114.113 Y116.882 E9.65784
G1 X113.885 Y117.441 E9.68339
G1 X113.667 Y117.791 E9.70084
G1 X113.277 Y118.082 E9.72143
G1 X112.964 Y118.181 E9.73532
G1 X112.8 Y118.195 E9.74229
G1 X111.828 Y119.167 E9.80047
G1 X111.348 Y119.167 E9.82078
G1 X112.316 Y118.199 E9.87872
G1 X111.846 Y118.19 E9.89862
G1 X110.868 Y119.167 E9.95713
G1 X110.388 Y119.167 E9.97744
G1 X111.454 Y118.101 E10.04124
G1 X111.37 Y118.083 E10.04488
G1 X111.155 Y117.921 E10.05627
G1 X109.908 Y119.167 E10.13088
G1 X109.429 Y119.167 E10.15115
G1 X110.913 Y117.683 E10.23997
G1 X110.737 Y117.379 E10.25484
G1 X108.949 Y119.167 E10.36186
G1 X108.469 Y119.167 E10.38217
G1 X110.6 Y117.036 E10.50972
G1 X110.462 Y116.694 E10.52533
G1 X107.989 Y119.167 E10.67335
G1 X107.509 Y119.167 E10.69366
G1 X110.325 Y116.352 E10.86218
G1 X110.187 Y116.009 E10.87783
G1 X107.509 Y118.687 E11.03812
G1 X107.509 Y118.207 E11.05843
G1 X110.05 Y115.667 E11.21049
G1 X109.912 Y115.325 E11.2261
G1 X107.509 Y117.727 E11.3699
G1 X107.509 Y117.248 E11.39017
G1 X109.775 Y114.982 E11.5258
G1 X109.637 Y114.64 E11.54141
G1 X107.509 Y116.768 E11.66878
