; generated by PrusaSlicer 2.9.3 on 2026-05-19 at 21:13:15 UTC

; 

; external perimeters extrusion width = 0.45mm
; perimeters extrusion width = 0.45mm
; infill extrusion width = 0.45mm
; solid infill extrusion width = 0.45mm
; top infill extrusion width = 0.40mm
; first layer extrusion width = 0.42mm

;TYPE:Custom
; Ender 3 Custom Start G-code
G92 E0 ; Reset Extruder
G28 ; Home all axes
M420 S1
M104 S150  ; start extruder heating
M190 S60 ; set bed temp
M140 S60  ;wait for bed temp
M109 S225  ; Wait for all used extruders to reach temperature
G1 Z2.0 F3000 ; Move Z Axis up little to prevent scratching of Heat Bed
G1 X5.1 Y20 Z0.3 F5000.0 ; Move to start position
G1 X5.1 Y200.0 Z0.3 F1500.0 E15 ; Draw the first line
G1 X5.4 Y200.0 Z0.3 F5000.0 ; Move to side a little
G1 X5.4 Y20 Z0.3 F1500.0 E30 ; Draw the second line
G92 E0 ; Reset Extruder
G1 Z2.0 F3000 ; Move Z Axis up little to prevent scratching of Heat Bed
G1 X5 Y20 Z0.3 F5000.0 ; Move over to prevent blob squish
G21 ; set units to millimeters
G90 ; use absolute coordinates
M82 ; use absolute distances for extrusion
G92 E0
; Filament gcode
M107
;LAYER_CHANGE
;Z:0.25
;HEIGHT:0.25
G1 E-1 F1200
G92 E0
G1 Z.25 F7800
G92 E0
G1 X109.023 Y111.152
G1 E1 F1200
;TYPE:Perimeter
;WIDTH:0.419999
G1 F1800
G1 X109.158 Y110.974 E1.00851
G1 X109.431 Y110.806 E1.02072
G1 X109.768 Y110.741 E1.03379
G1 X110.554 Y110.741 E1.06372
G1 X110.984 Y110.849 E1.0806
G1 X111.349 Y111.202 E1.09993
G1 X111.78 Y112.278 E1.14407
G1 X112.888 Y112.278 E1.18626
G1 X113.264 Y111.322 E1.22538
G1 X113.384 Y111.107 E1.23476
G1 X113.685 Y110.849 E1.24986
G1 X114.116 Y110.741 E1.26678
G1 X114.913 Y110.741 E1.29713
G1 X115.301 Y110.828 E1.31227
G1 X115.593 Y111.044 E1.3261
G1 X115.764 Y111.32 E1.33846
G1 X115.829 Y111.662 E1.35172
G1 X115.761 Y112.003 E1.36496
G1 X113.594 Y117.312 E1.58331
G1 X113.43 Y117.576 E1.59514
G1 X113.137 Y117.794 E1.60905
G1 X112.746 Y117.882 E1.62431
G1 X111.901 Y117.882 E1.65649
G1 X111.508 Y117.793 E1.67183
G1 X111.215 Y117.573 E1.68578
G1 X111.051 Y117.307 E1.69768
G1 X108.918 Y111.998 E1.91554
G1 X108.853 Y111.62 E1.93014
G1 X108.947 Y111.251 E1.94464
G1 X108.986 Y111.2 E1.94708
G1 X109.321 Y111.354 F7800
G1 F1800
G1 X109.402 Y111.247 E1.95219
G1 X109.674 Y111.116 E1.96369
G1 X110.554 Y111.108 E1.9972
G1 X110.812 Y111.172 E2.00732
G1 X111.031 Y111.384 E2.01893
G1 X111.529 Y112.644 E2.07052
G1 X113.138 Y112.644 E2.13179
G1 X113.605 Y111.456 E2.1804
G1 X113.677 Y111.327 E2.18603
G1 X113.858 Y111.172 E2.1951
G1 X114.116 Y111.108 E2.20522
G1 X114.913 Y111.108 E2.23557
G1 X115.146 Y111.159 E2.24465
G1 X115.321 Y111.289 E2.25295
G1 X115.454 Y111.562 E2.26451
G1 X115.454 Y111.752 E2.27174
G1 X115.422 Y111.865 E2.27621
G1 X113.255 Y117.173 E2.49452
G1 X113.156 Y117.332 E2.50165
G1 X112.981 Y117.463 E2.50997
G1 X112.746 Y117.515 E2.51913
G1 X111.901 Y117.515 E2.55131
G1 X111.665 Y117.462 E2.56052
G1 X111.489 Y117.33 E2.5689
G1 X111.221 Y116.747 E2.59333
G1 X109.258 Y111.862 E2.7938
G1 X109.219 Y111.635 E2.80257
G1 X109.276 Y111.413 E2.8113
G1 X109.285 Y111.401 E2.81187
G1 X109.62 Y111.555 F7800
;TYPE:External perimeter
G1 F1800
G1 X109.646 Y111.521 E2.8135
G1 X109.768 Y111.474 E2.81848
G1 X110.554 Y111.474 E2.84841
G1 X110.7 Y111.547 E2.85463
G1 X111.279 Y113.011 E2.91458
G1 X113.387 Y113.011 E2.99485
G1 X113.946 Y111.59 E3.05299
G1 X114.03 Y111.495 E3.05782
G1 X114.913 Y111.474 E3.09145
G1 X115.049 Y111.534 E3.09711
G1 X115.093 Y111.689 E3.10325
G1 X115.082 Y111.726 E3.10472
G1 X112.916 Y117.035 E3.32305
G1 X112.825 Y117.132 E3.32811
G1 X111.901 Y117.149 E3.3633
G1 X111.764 Y117.087 E3.36903
G1 X109.598 Y111.725 E3.58923
G1 X109.603 Y111.61 E3.59361
G1 X109.981 Y111.479 F7800
G1 E2.59361 F1200
G92 E0
G1 X117.656 Y109.015 F7800
G1 E1 F1200
;TYPE:Perimeter
G1 F1800
G1 X117.664 Y109.016 E1.00031
G1 X117.717 Y109.119 E1.00472
G1 X117.722 Y119.284 E1.39178
G1 X117.702 Y119.399 E1.39622
G1 X117.573 Y119.449 E1.40149
G1 X107.443 Y119.449 E1.78722
G1 X107.328 Y119.429 E1.79166
G1 X107.278 Y119.3 E1.79693
G1 X107.278 Y110.134 E2.14595
G1 X107.298 Y109.055 E2.18704
G1 X107.427 Y109.005 E2.19231
G1 X117.596 Y109.009 E2.57952
G1 X117.733 Y108.663 F7800
G1 F1800
G1 X117.813 Y108.675 E2.5826
G1 X118.025 Y108.855 E2.59319
G1 X118.083 Y109.119 E2.60348
G1 X118.088 Y119.284 E2.99054
G1 X118.046 Y119.549 E3.00076
G1 X117.889 Y119.728 E3.00983
G1 X117.609 Y119.815 E3.02099
G1 X107.443 Y119.815 E3.40809
G1 X107.177 Y119.773 E3.41834
G1 X106.999 Y119.616 E3.42738
G1 X106.912 Y119.336 E3.43854
G1 X106.912 Y109.17 E3.82564
G1 X106.954 Y108.904 E3.83589
G1 X107.111 Y108.726 E3.84493
G1 X107.391 Y108.639 E3.85609
G1 X117.607 Y108.643 E4.24509
G1 X117.673 Y108.653 E4.24763
G1 X117.81 Y108.309 F7800
;TYPE:External perimeter
G1 F1800
G1 X117.963 Y108.334 E4.25353
G1 X118.082 Y108.414 E4.25899
G1 X118.29 Y108.598 E4.26956
G1 X118.389 Y108.795 E4.27796
G1 X118.45 Y109.119 E4.29051
G1 X118.454 Y119.283 E4.67753
G1 X118.391 Y119.692 E4.69329
G1 X118.22 Y119.947 E4.70498
G1 X117.965 Y120.118 E4.71667
G1 X117.645 Y120.181 E4.72909
G1 X107.443 Y120.181 E5.11756
G1 X107.035 Y120.118 E5.13328
G1 X106.78 Y119.947 E5.14497
G1 X106.609 Y119.692 E5.15666
G1 X106.546 Y119.372 E5.16908
G1 X106.546 Y109.17 E5.55755
G1 X106.609 Y108.762 E5.57327
G1 X106.78 Y108.507 E5.58496
G1 X107.035 Y108.336 E5.59665
G1 X107.355 Y108.273 E5.60907
G1 X117.607 Y108.277 E5.99944
G1 X117.751 Y108.3 E6.00499
G1 X118.116 Y108.463 F7800
G1 X117.607 Y109.872
;TYPE:Solid infill
;WIDTH:0.425549
G1 F1800
G1 X117.019 Y109.284 E6.03713
G1 X116.493 Y109.284 E6.05746
G1 X117.443 Y110.233 E6.10936
G1 X117.443 Y110.759 E6.12969
G1 X115.967 Y109.283 E6.21038
G1 X115.441 Y109.283 E6.23071
G1 X117.443 Y111.286 E6.34018
G1 X117.444 Y111.812 E6.36051
G1 X114.915 Y109.283 E6.49876
G1 X114.389 Y109.283 E6.51909
G1 X117.444 Y112.338 E6.68609
G1 X117.444 Y112.864 E6.70642
G1 X116.091 Y111.511 E6.78038
G1 X116.019 Y111.215 E6.79216
G1 X115.798 Y110.858 E6.80839
G1 X115.418 Y110.577 E6.82666
G1 X115.082 Y110.502 E6.83997
G1 X113.862 Y109.283 E6.90663
G1 X113.336 Y109.282 E6.92696
G1 X114.52 Y110.466 E6.99168
G1 X114.004 Y110.476 E7.01163
G1 X112.81 Y109.282 E7.0769
G1 X112.284 Y109.282 E7.09723
G1 X113.594 Y110.592 E7.16884
G1 X113.553 Y110.606 E7.17051
G1 X113.299 Y110.823 E7.18342
G1 X111.758 Y109.282 E7.26766
G1 X111.232 Y109.282 E7.28799
G1 X113.066 Y111.116 E7.38825
G1 X112.906 Y111.482 E7.40369
G1 X110.706 Y109.281 E7.52398
G1 X110.179 Y109.281 E7.54435
G1 X112.757 Y111.859 E7.68528
G1 X112.701 Y112.003 E7.69125
G1 X112.375 Y112.003 E7.70385
G1 X109.653 Y109.281 E7.85265
G1 X109.127 Y109.281 E7.87298
G1 X110.313 Y110.466 E7.93779
G1 X109.787 Y110.466 E7.95812
G1 X108.601 Y109.28 E8.02295
G1 X108.075 Y109.28 E8.04328
G1 X109.341 Y110.547 E8.11251
G1 X109.013 Y110.744 E8.1273
G1 X107.553 Y109.284 E8.20711
G1 X107.553 Y109.81 E8.22744
G1 X108.774 Y111.031 E8.29419
G1 X108.701 Y111.127 E8.29885
G1 X108.613 Y111.396 E8.30979
G1 X107.553 Y110.336 E8.36774
G1 X107.553 Y110.862 E8.38807
G1 X108.612 Y111.921 E8.44596
G1 X108.662 Y112.096 E8.453
G1 X108.931 Y112.766 E8.48091
G1 X107.553 Y111.388 E8.55624
G1 X107.553 Y111.914 E8.57657
G1 X109.284 Y113.645 E8.6712
G1 X109.637 Y114.524 E8.70781
G1 X107.553 Y112.44 E8.82173
G1 X107.553 Y112.966 E8.84206
G1 X109.99 Y115.403 E8.97528
G1 X110.343 Y116.282 E9.01189
G1 X107.388 Y113.327 E9.17343
G1 E8.17343 F1200
G92 E0
G1 X115.915 Y111.861 F7800
G1 E1 F1200
G1 F1800
G1 X117.444 Y113.39 E1.08358
G1 X117.444 Y113.917 E1.10395
G1 X115.905 Y112.377 E1.18811
G1 X115.753 Y112.751 E1.20372
G1 X117.445 Y114.443 E1.29621
G1 X117.445 Y114.969 E1.31654
G1 X115.6 Y113.124 E1.4174
G1 X115.448 Y113.498 E1.43301
G1 X117.445 Y115.495 E1.54218
G1 X117.445 Y116.021 E1.56251
G1 X115.295 Y113.871 E1.68004
G1 X115.143 Y114.245 E1.69565
G1 X117.446 Y116.547 E1.82152
G1 X117.446 Y117.074 E1.84189
G1 X114.99 Y114.618 E1.97615
G1 X114.838 Y114.992 E1.99176
G1 X117.446 Y117.6 E2.13433
G1 X117.446 Y118.126 E2.15466
G1 X114.686 Y115.365 E2.30556
G1 X114.533 Y115.739 E2.32118
G1 X117.447 Y118.652 E2.48045
G1 X117.447 Y119.174 E2.50063
G1 X114.381 Y116.112 E2.66813
G1 X114.228 Y116.486 E2.68375
G1 X116.917 Y119.174 E2.83072
G1 X116.391 Y119.174 E2.85105
G1 X114.076 Y116.859 E2.9776
G1 X113.923 Y117.233 E2.99322
G1 X115.865 Y119.174 E3.09935
G1 X115.339 Y119.174 E3.11968
G1 X113.747 Y117.582 E3.20671
G1 X113.635 Y117.761 E3.21487
G1 X113.5 Y117.861 E3.22136
G1 X114.813 Y119.174 E3.29314
G1 X114.287 Y119.174 E3.31347
G1 X113.18 Y118.067 E3.37398
G1 X112.954 Y118.139 E3.38315
G1 X112.743 Y118.157 E3.39134
G1 X113.761 Y119.174 E3.44696
G1 X113.235 Y119.174 E3.46729
G1 X112.053 Y117.992 E3.5319
G1 X112.874 Y119.339 F7800
G1 F1800
G1 X111.634 Y118.099 E3.59969
G1 X111.39 Y118.044 E3.60936
G1 X111.009 Y117.757 E3.6278
G1 X110.799 Y117.417 E3.64325
G1 X110.696 Y117.161 E3.65392
G1 X107.553 Y114.018 E3.82573
G1 X107.553 Y114.544 E3.84606
G1 X112.183 Y119.174 E4.09916
G1 X111.657 Y119.174 E4.11949
G1 X107.553 Y115.07 E4.34384
G1 X107.553 Y115.596 E4.36417
G1 X111.131 Y119.174 E4.55976
G1 X110.605 Y119.174 E4.58009
G1 X107.553 Y116.122 E4.74693
G1 X107.553 Y116.648 E4.76726
G1 X110.079 Y119.174 E4.90535
G1 X109.553 Y119.174 E4.92568
G1 X107.553 Y117.174 E5.03501
G1 X107.553 Y117.7 E5.05534
G1 X109.027 Y119.174 E5.13592
G1 X108.501 Y119.174 E5.15625
G1 X107.553 Y118.226 E5.20807
G1 X107.553 Y118.751 E5.22836
G1 X108.14 Y119.339 E5.26048
G1 E4.26048 F1200
G92 E0
G1 X112.366 Y114.388 F7800
G1 E1 F1200
;TYPE:Perimeter
;WIDTH:0.61195
G1 F1800
G1 X112.296 Y114.388 E1.00406
G1 X112.261 Y114.449 E1.00814
G1 X112.296 Y114.509 E1.01217
G1 X112.366 Y114.509 E1.01623
G1 X112.401 Y114.449 E1.02026
G1 X112.337 Y115.746 F7800
;TYPE:External perimeter
;WIDTH:0.419999
G1 F1800
G1 X111.655 Y113.986 E1.09213
G1 X113.007 Y113.986 E1.14361
G1 X112.762 Y114.616 E1.16935
G1 X112.358 Y115.695 E1.21322
G1 X112.176 Y115.339 F7800
;LAYER_CHANGE
;Z:0.55
;HEIGHT:0.3
G1 E.21322 F1200
G92 E0
G1 Z.55 F7800
G1 X108.976 Y111.119
G1 E1 F1200
;TYPE:Perimeter
;WIDTH:0.45
G1 F900
G1 X109.13 Y110.923 E1.01199
G1 X109.413 Y110.752 E1.02789
G1 X109.76 Y110.688 E1.04486
G1 X110.558 Y110.688 E1.08324
G1 X110.996 Y110.793 E1.1049
G1 X111.311 Y111.05 E1.12445
G1 X111.455 Y111.301 E1.13837
G1 X111.816 Y112.224 E1.18604
G1 X112.851 Y112.224 E1.23582
G1 X113.215 Y111.299 E1.28363
G1 X113.359 Y111.05 E1.29746
G1 X113.674 Y110.793 E1.31701
G1 X114.113 Y110.688 E1.33872
G1 X114.921 Y110.688 E1.37758
G1 X115.32 Y110.774 E1.39721
G1 X115.625 Y110.993 E1.41527
G1 X115.812 Y111.284 E1.43191
G1 X115.885 Y111.651 E1.44991
G1 X115.813 Y112.016 E1.4678
G1 X113.643 Y117.335 E1.7441
G1 X113.469 Y117.613 E1.75987
G1 X113.161 Y117.843 E1.77836
G1 X112.75 Y117.935 E1.79862
G1 X111.897 Y117.935 E1.83965
G1 X111.484 Y117.842 E1.86001
G1 X111.175 Y117.61 E1.87859
G1 X111.003 Y117.331 E1.89435
G1 X110.823 Y116.884 E1.91753
G1 X108.866 Y112.011 E2.1701
G1 X108.797 Y111.606 E2.18986
G1 X108.902 Y111.214 E2.20938
G1 X108.939 Y111.167 E2.21226
G1 X109.29 Y111.332 F7800
G1 F900
G1 X109.382 Y111.214 E2.21946
G1 X109.661 Y111.082 E2.23431
G1 X110.557 Y111.073 E2.27741
G1 X110.82 Y111.137 E2.29043
G1 X111.054 Y111.356 E2.30584
G1 X111.553 Y112.61 E2.37075
G1 X113.114 Y112.61 E2.44583
G1 X113.574 Y111.44 E2.5063
G1 X113.66 Y111.291 E2.51457
G1 X113.849 Y111.137 E2.5263
G1 X114.113 Y111.073 E2.53937
G1 X114.921 Y111.073 E2.57823
G1 X115.16 Y111.125 E2.58999
G1 X115.343 Y111.256 E2.60081
G1 X115.491 Y111.552 E2.61673
G1 X115.491 Y111.751 E2.6263
G1 X115.456 Y111.87 E2.63227
G1 X113.286 Y117.19 E2.90861
G1 X113.182 Y117.356 E2.91803
G1 X112.997 Y117.494 E2.92913
G1 X112.75 Y117.55 E2.94131
G1 X111.897 Y117.55 E2.98234
G1 X111.649 Y117.494 E2.99457
G1 X111.464 Y117.354 E3.00573
G1 X111.181 Y116.74 E3.03825
G1 X109.224 Y111.867 E3.29082
G1 X109.183 Y111.625 E3.30263
G1 X109.245 Y111.389 E3.31437
G1 X109.253 Y111.379 E3.31499
G1 X109.614 Y111.546 F7800
;TYPE:External perimeter
G1 F900
G1 X109.727 Y111.462 E3.32176
G1 X110.557 Y111.459 E3.36168
G1 X110.708 Y111.531 E3.36973
G1 X111.289 Y112.996 E3.44553
G1 X113.377 Y112.996 E3.54596
G1 X113.933 Y111.581 E3.61908
G1 X114.025 Y111.48 E3.62565
G1 X114.921 Y111.459 E3.66876
G1 X115.062 Y111.52 E3.67615
G1 X115.111 Y111.685 E3.68443
G1 X115.099 Y111.725 E3.68644
G1 X112.929 Y117.044 E3.96274
G1 X112.832 Y117.146 E3.96951
G1 X111.897 Y117.164 E4.01449
G1 X111.753 Y117.099 E4.02209
G1 X111.539 Y116.596 E4.04838
G1 X109.581 Y111.724 E4.30092
G1 X109.587 Y111.593 E4.30723
G1 X109.967 Y111.467 F7800
G1 E3.30723 F1200
G92 E0
G1 X117.721 Y108.949 F7800
G1 E1 F1200
;TYPE:Perimeter
G1 F3600
G1 X117.75 Y108.982 E1.00211
G1 X117.755 Y119.32 E1.49933
G1 X117.738 Y119.415 E1.50397
G1 X117.655 Y119.431 E1.50804
G1 X107.356 Y119.431 E2.00339
G1 X107.262 Y119.415 E2.00798
G1 X107.245 Y119.331 E2.0121
G1 X107.245 Y109.032 E2.50745
G1 X107.262 Y108.938 E2.51204
G1 X107.345 Y108.921 E2.51611
G1 X117.673 Y108.924 E3.01285
G1 X117.818 Y108.56 F7800
G1 F3600
G1 X117.89 Y108.572 E3.01636
G1 X118.081 Y108.734 E3.02841
G1 X118.136 Y108.982 E3.04063
G1 X118.141 Y119.32 E3.53785
G1 X118.1 Y119.572 E3.55013
G1 X117.957 Y119.736 E3.5606
G1 X117.693 Y119.817 E3.57388
G1 X107.356 Y119.817 E4.07105
G1 X107.104 Y119.777 E4.08332
G1 X106.941 Y119.634 E4.09375
G1 X106.859 Y119.369 E4.10709
G1 X106.859 Y109.032 E4.60426
G1 X106.9 Y108.78 E4.61654
G1 X107.043 Y108.617 E4.62697
G1 X107.307 Y108.536 E4.64025
G1 X117.693 Y108.538 E5.13978
G1 X117.758 Y108.55 E5.14296
G1 X117.896 Y108.187 F7800
;TYPE:External perimeter
G1 F1800
G1 X118.044 Y108.211 E5.15017
G1 X118.3 Y108.382 E5.16498
G1 X118.462 Y108.662 E5.18054
G1 X118.522 Y108.981 E5.19615
G1 X118.526 Y119.32 E5.69342
G1 X118.464 Y119.723 E5.71303
G1 X118.297 Y119.973 E5.72749
G1 X118.046 Y120.14 E5.74199
G1 X117.731 Y120.203 E5.75744
G1 X107.356 Y120.203 E6.25644
G1 X106.954 Y120.14 E6.27601
G1 X106.703 Y119.973 E6.29051
G1 X106.536 Y119.723 E6.30497
G1 X106.474 Y119.407 E6.32046
G1 X106.474 Y109.032 E6.81946
G1 X106.536 Y108.63 E6.83902
G1 X106.703 Y108.38 E6.85348
G1 X106.954 Y108.213 E6.86798
G1 X107.269 Y108.15 E6.88343
G1 X117.693 Y108.153 E7.38479
G1 X117.836 Y108.177 E7.39176
G1 X118.206 Y108.331 F7800
G1 E6.39176 F1200
G92 E0
G1 X107.639 Y109.242 F7800
G1 E1 F1200
;TYPE:Solid infill
;WIDTH:0.543523
G1 X107.596 Y109.199 E1.00363
G1 X107.539 Y109.215 E1.00717
G1 X107.523 Y109.273 E1.01077
G1 X107.565 Y109.315 E1.01432
G1 X107.623 Y109.3 E1.0179
;WIDTH:0.45
G1 X108.239 Y109.211 E1.04784
G1 X107.534 Y109.916 E1.09579
;WIDTH:0.498559
G1 X107.422 Y110.05 E1.10525
G1 X107.384 Y110.011 E1.1082
G1 X107.331 Y110.025 E1.11117
G1 X107.317 Y110.078 E1.11414
G1 X107.356 Y110.116 E1.11709
G1 X107.408 Y110.102 E1.12001
;WIDTH:0.45
G1 X107.534 Y110.461 E1.13831
G1 X108.784 Y109.211 E1.22333
G1 X109.329 Y109.211 E1.24954
G1 X107.534 Y111.006 E1.37163
G1 X107.534 Y111.552 E1.39789
G1 X109.875 Y109.211 E1.55712
G1 X110.42 Y109.211 E1.58333
G1 X107.534 Y112.097 E1.77963
G1 X108.387 Y111.79 F7800
G1 F1200
G1 X107.67 Y112.506 E1.82837
G1 X107.534 Y112.506 E1.83491
G1 X107.534 Y119.142 E2.15408
G1 X112.45 Y119.142 E2.39052
G1 X112.334 Y119.039 E2.39798
G1 X112.286 Y118.814 E2.40905
G1 X112.885 Y118.198 E2.45038
G1 X111.866 Y118.22 E2.4994
G1 X111.327 Y118.081 E2.52617
G1 X110.939 Y117.773 E2.55
G1 X110.731 Y117.431 E2.56925
G1 X108.599 Y112.124 E2.84433
G1 X108.523 Y111.834 E2.85875
G1 X108.523 Y111.653 E2.86746
G1 X108.303 Y112.419 F7800
G1 F1200
G1 X110.373 Y117.574 E3.13464
G1 X110.611 Y117.975 E3.15707
G1 X110.755 Y118.134 E3.16739
G1 X111.095 Y118.389 E3.18783
;WIDTH:0.490643
G1 X111.262 Y118.461 E3.1975
;WIDTH:0.531287
G1 X111.429 Y118.532 E3.20807
;WIDTH:0.571931
G1 X111.596 Y118.604 E3.21958
;WIDTH:0.612575
G1 X111.763 Y118.675 E3.23199
G1 X111.644 Y118.696 E3.24025
;WIDTH:0.571931
G1 X111.524 Y118.716 E3.24795
;WIDTH:0.531287
G1 X111.405 Y118.736 E3.25498
;WIDTH:0.490643
G1 X111.286 Y118.757 E3.2614
;WIDTH:0.45
G1 X107.92 Y118.757 E3.42329
G1 X107.92 Y112.779 E3.71081
G1 X107.943 Y112.779 E3.71192
G1 X108.166 Y112.556 E3.72709
G1 X108.305 Y113.461 F7800
G1 F1200
