; generated by PrusaSlicer 2.9.3 on 2026-04-27 at 20:10:26 UTC

; 

; external perimeters extrusion width = 0.45mm
; perimeters extrusion width = 0.45mm
; infill extrusion width = 0.45mm
; solid infill extrusion width = 0.45mm
; top infill extrusion width = 0.40mm
; first layer extrusion width = 0.42mm

;TYPE:Custom
; RESPECT BED LEVELING
M420 S1 ; enable bed leveling
G1 Z5 F5000 ; lift nozzle

; PRIME LINE
G28; Home extruder
G1 X0 Y0 Z5 F5000
M107 ; Turn off fan
G90 ; Absolute positioning
M104 S150  ; start extruder heating
M190 S60 ; set bed temp
M140 S60  ;wait for bed temp
M109 S225  ; Wait for all used extruders to reach temperature
G92 E0 ; Reset extruder position
G1 X5 Y5 Z0.25 F1000.0 ; go intro start pos
G1 X60.0 E9.0 F600.0 ; intro line to prime extruder
G1 X100.0 E16 F800.0 ; intro line
G92 E0.0 ; reset extruder distance position
G21 ; set units to millimeters
G90 ; use absolute coordinates
M82 ; use absolute distances for extrusion
G92 E0
; Filament gcode
M107
;LAYER_CHANGE
;Z:0.25
;HEIGHT:0.25
G1 E-1 F1200
G92 E0
G1 Z.25 F7800
G92 E0
G1 X119.93 Y120.167
G1 E1 F1200
;TYPE:Perimeter
;WIDTH:0.467139
G1 F1800
G1 X119.84 Y120.222 E1.00453
;WIDTH:0.514279
G1 X119.605 Y120.363 E1.01765
;WIDTH:0.544051
G1 X119.558 Y120.391 E1.02044
;WIDTH:0.573822
G1 X119.511 Y120.419 E1.0234
G1 X119.403 Y120.425 E1.02925
;WIDTH:0.567155
G1 X105.65 Y120.423 E1.76328
;WIDTH:0.577893
G1 X105.501 Y120.411 E1.77143
G1 X105.404 Y120.354 E1.77756
;WIDTH:0.53842
G1 X105.307 Y120.296 E1.78325
;WIDTH:0.498946
G1 X105.21 Y120.239 E1.78846
;WIDTH:0.459473
G1 X105.113 Y120.182 E1.79321
;WIDTH:0.419999
G1 X104.947 Y120.046 E1.80138
G1 X104.806 Y119.831 E1.81117
G1 X104.677 Y119.376 E1.82918
G1 X104.685 Y105.543 E2.35591
G1 X104.763 Y105.262 E2.36701
G1 X104.978 Y104.924 E2.38226
G1 X105.171 Y104.789 E2.39123
G1 X105.516 Y104.66 E2.40526
G1 X106.555 Y104.652 E2.44482
;WIDTH:0.469425
G1 X106.688 Y104.627 E2.45067
;WIDTH:0.518851
G1 X106.822 Y104.602 E2.45726
;WIDTH:0.568276
G1 X106.955 Y104.577 E2.4645
G1 X119.404 Y104.575 E3.13039
;WIDTH:0.567068
G1 X119.548 Y104.613 E3.13834
;WIDTH:0.538209
G1 X119.692 Y104.651 E3.14584
;WIDTH:0.509349
G1 X119.898 Y104.8 E3.15788
;WIDTH:0.464674
G1 X120.104 Y104.949 E3.16874
;WIDTH:0.462836
G1 X120.184 Y105.064 E3.1747
;WIDTH:0.505673
G1 X120.265 Y105.179 E3.18131
;WIDTH:0.54851
G1 X120.345 Y105.294 E3.18852
;WIDTH:0.591347
G1 X120.426 Y105.409 E3.19638
G1 X120.45 Y105.623 E3.20841
;WIDTH:0.564785
G1 X120.45 Y119.378 E3.93916
G1 X120.412 Y119.516 E3.94676
;WIDTH:0.532963
G1 X120.375 Y119.654 E3.95388
;WIDTH:0.50114
G1 X120.225 Y119.867 E3.966
;WIDTH:0.46057
G1 X120.075 Y120.08 E3.97702
;WIDTH:0.467139
G1 X119.982 Y120.136 E3.98169
G1 X119.737 Y119.875 F7800
;TYPE:External perimeter
;WIDTH:0.419999
G1 F1800
G1 X119.735 Y119.877 E3.9818
G1 X119.403 Y119.985 E3.99509
G1 X105.65 Y119.984 E4.51877
G1 X105.343 Y119.896 E4.53093
G1 X105.151 Y119.707 E4.54119
G1 X105.043 Y119.376 E4.55445
G1 X105.051 Y105.543 E5.08118
G1 X105.247 Y105.172 E5.09716
G1 X105.579 Y105.021 E5.11105
G1 X106.555 Y105.018 E5.14821
G1 X119.404 Y105.015 E5.63747
G1 X119.681 Y105.087 E5.64837
G1 X119.904 Y105.292 E5.6599
G1 X120.011 Y105.623 E5.67315
G1 X120.011 Y119.378 E6.19691
G1 X119.943 Y119.648 E6.20751
G1 X119.778 Y119.83 E6.21686
G1 X119.402 Y119.968 F7800
G1 E5.21686 F1200
G92 E0
G1 X105.222 Y120.637 F7800
G1 E1 F1200
;TYPE:Perimeter
;WIDTH:0.426334
G1 F1800
G1 X104.426 Y120.623 E1.03084
G1 X104.38 Y120.451 E1.03774
G1 X104.365 Y119.99 E1.05561
;WIDTH:0.396771
G1 X104.351 Y119.53 E1.07202
G1 X104.404 Y119.742 E1.07981
;WIDTH:0.426334
G1 X104.458 Y119.955 E1.08832
G1 X104.694 Y120.315 E1.10499
G1 X104.882 Y120.469 E1.1144
G1 X105.168 Y120.611 E1.12677
G1 E.12677 F1200
G92 E0
G1 X119.776 Y120.643 F7800
G1 E1 F1200
;WIDTH:0.424534
G1 F1800
G1 X119.983 Y120.569 E1.00847
G1 X120.344 Y120.332 E1.02512
G1 X120.533 Y120.086 E1.03708
G1 X120.665 Y119.789 E1.04961
G1 X120.645 Y120.596 E1.08073
G1 X120.518 Y120.644 E1.08596
G1 X119.836 Y120.643 E1.11225
G1 E.11225 F1200
G92 E0
G1 X120.655 Y105.178 F7800
G1 E1 F1200
;WIDTH:0.431234
G1 F1800
G1 X120.605 Y105.04 E1.00576
G1 X120.354 Y104.679 E1.02302
;WIDTH:0.424492
G1 X120.122 Y104.499 E1.03434
G1 X119.808 Y104.357 E1.04762
G1 X120.615 Y104.374 E1.07873
G1 X120.665 Y104.519 E1.08464
G1 X120.665 Y104.542 E1.08553
;WIDTH:0.431234
G1 X120.656 Y105.118 E1.10814
G1 E.10814 F1200
G92 E0
G1 X104.348 Y105.543 F7800
G1 E1 F1200
;WIDTH:0.394714
G1 F1800
G1 X104.364 Y105.298 E1.0087
;WIDTH:0.427919
G1 X104.402 Y104.399 E1.0437
G1 X104.568 Y104.359 E1.05034
G1 X105.013 Y104.343 E1.06766
;WIDTH:0.395866
G1 X105.457 Y104.327 E1.08346
G1 X105.243 Y104.387 E1.09137
;WIDTH:0.427919
G1 X105.029 Y104.447 E1.10002
G1 X104.706 Y104.673 E1.11536
G1 X104.445 Y105.072 E1.13391
G1 X104.396 Y105.307 E1.14325
;WIDTH:0.394714
G1 X104.36 Y105.484 E1.14965
G1 X105.457 Y104.327 F7800
;WIDTH:0.363812
G1 F1800
G1 X106.555 Y104.32 E1.18505
G1 E.18505 F1200
G92 E0
G1 X104.351 Y119.53 F7800
G1 E1 F1200
;WIDTH:0.367208
G1 F1800
G1 X104.344 Y119.375 E1.00506
;WIDTH:0.361508
G1 X104.348 Y105.543 E1.44766
G1 E.44766 F1200
G92 E0
G1 X120.685 Y104.026 F7800
G1 E1 F1200
;WIDTH:0.419999
G1 F1800
G1 X120.834 Y104.074 E1.00596
G1 X120.991 Y104.253 E1.01503
G1 X121.034 Y104.519 E1.02529
;WIDTH:0.426923
G1 X121.03 Y105.031 E1.04515
;WIDTH:0.468029
G1 X121.01 Y105.103 E1.04837
;WIDTH:0.509135
G1 X120.989 Y105.174 E1.05188
;WIDTH:0.550241
G1 X120.968 Y105.246 E1.05575
;WIDTH:0.591347
G1 X120.948 Y105.318 E1.05993
G1 X120.961 Y105.623 E1.07699
;WIDTH:0.564785
G1 X120.961 Y119.378 E1.80774
G1 X120.977 Y119.546 E1.81671
;WIDTH:0.532963
G1 X120.993 Y119.715 E1.82517
;WIDTH:0.50114
G1 X121.013 Y120.026 E1.83966
;WIDTH:0.46057
G1 X121.034 Y120.336 E1.8528
;WIDTH:0.419999
G1 X120.991 Y120.747 E1.86854
G1 X120.835 Y120.925 E1.87755
G1 X120.555 Y121.012 E1.88871
G1 X119.996 Y121.012 E1.91
;WIDTH:0.469051
G1 X119.799 Y120.988 E1.91857
;WIDTH:0.518103
G1 X119.601 Y120.963 E1.9282
;WIDTH:0.567155
G1 X119.403 Y120.938 E1.93885
G1 X105.65 Y120.934 E2.67288
;WIDTH:0.56525
G1 X105.446 Y120.951 E2.68377
;WIDTH:0.532291
G1 X105.241 Y120.967 E2.694
;WIDTH:0.499332
G1 X104.904 Y120.987 E2.70964
;WIDTH:0.459666
G1 X104.566 Y121.007 E2.72393
;WIDTH:0.419999
G1 X104.235 Y120.952 E2.73671
G1 X104.098 Y120.813 E2.74414
G1 X104.011 Y120.532 E2.75534
G1 X104.011 Y104.766 E3.35567
G1 X104.053 Y104.254 E3.37523
G1 X104.209 Y104.076 E3.38424
G1 X104.49 Y103.989 E3.39544
G1 X106.555 Y103.989 E3.47407
;WIDTH:0.469425
G1 X106.688 Y104.013 E3.47991
;WIDTH:0.518851
G1 X106.822 Y104.038 E3.4865
;WIDTH:0.568276
G1 X106.955 Y104.063 E3.49374
G1 X119.404 Y104.062 E4.15963
;WIDTH:0.567068
G1 X119.58 Y104.047 E4.16906
;WIDTH:0.538209
G1 X119.756 Y104.033 E4.17795
;WIDTH:0.509349
G1 X120.16 Y104.011 E4.19711
;WIDTH:0.464674
G1 X120.565 Y103.988 E4.21444
;WIDTH:0.419999
G1 X120.628 Y104.008 E4.21696
G1 X120.758 Y103.662 F7800
;TYPE:External perimeter
G1 F1800
G1 X120.91 Y103.685 E4.22281
G1 X121.166 Y103.855 E4.23451
G1 X121.336 Y104.11 E4.24618
G1 X121.4 Y104.519 E4.26194
G1 X121.4 Y120.458 E4.86886
G1 X121.336 Y120.89 E4.88549
G1 X121.166 Y121.145 E4.89716
G1 X120.911 Y121.315 E4.90883
G1 X120.591 Y121.379 E4.92126
G1 X104.366 Y121.373 E5.53907
G1 X104.07 Y121.285 E5.55083
G1 X103.88 Y121.146 E5.55979
G1 X103.708 Y120.889 E5.57157
G1 X103.644 Y120.568 E5.58403
G1 X103.644 Y104.546 E6.19411
G1 X103.708 Y104.111 E6.21085
G1 X103.878 Y103.856 E6.22252
G1 X104.133 Y103.686 E6.23419
G1 X104.453 Y103.622 E6.24662
G1 X120.48 Y103.622 E6.85689
G1 X120.699 Y103.654 E6.86532
G1 X121.07 Y103.803 F7800
G1 E5.86532 F1200
G92 E0
G1 X111.551 Y110.061 F7800
G1 E1 F1200
;WIDTH:0.49143
G1 F1800
G1 X111.589 Y110.059 E1.00173
;WIDTH:0.488138
G1 X113.411 Y110.059 E1.08401
G1 X113.011 Y110.059 F7800
G1 E.08401 F1200
G92 E0
G1 X114.976 Y111.588 F7800
G1 E1 F1200
;WIDTH:0.416596
G1 F1800
G1 X114.976 Y113.411 E1.06877
;WIDTH:0.419344
G1 X114.975 Y113.443 E1.06999
G1 X114.975 Y113.043 F7800
G1 E.06999 F1200
G92 E0
G1 X113.449 Y114.939 F7800
G1 E1 F1200
;WIDTH:0.49145
G1 F1800
G1 X113.411 Y114.941 E1.00173
;WIDTH:0.48816
G1 X111.589 Y114.941 E1.08402
G1 X111.989 Y114.941 F7800
G1 E.08402 F1200
G92 E0
G1 X110.025 Y113.443 F7800
G1 E1 F1200
;WIDTH:0.42005
G1 F1800
G1 X110.024 Y113.411 E1.00122
;WIDTH:0.417294
G1 X110.024 Y111.589 E1.07009
G1 X110.024 Y111.989 F7800
G1 E.07009 F1200
G92 E0
G1 X110.969 Y114.538 F7800
G1 E1 F1200
;TYPE:Perimeter
;WIDTH:0.560659
G1 F1800
G1 X110.462 Y114.538 E1.02672
G1 X110.462 Y114.031 E1.05344
G1 X110.969 Y114.031 E1.08016
G1 X110.969 Y114.478 E1.10372
G1 X111.489 Y114.823 F7800
;TYPE:External perimeter
;WIDTH:0.45408
G1 F1800
G1 X111.497 Y114.832 E1.10422
;WIDTH:0.48816
G1 X111.589 Y114.941 E1.11066
G1 X111.152 Y114.958 E1.13041
;WIDTH:0.45408
G1 X110.715 Y114.975 E1.14861
;WIDTH:0.42005
G1 X110.215 Y114.951 E1.16767
G1 X110.081 Y114.842 E1.17425
G1 X110.025 Y114.655 E1.18168
G1 X110.025 Y113.443 E1.22784
;WIDTH:0.419999
G1 X110.205 Y113.595 E1.23681
G1 X111.405 Y113.595 E1.2825
G1 X111.405 Y114.724 E1.32549
;WIDTH:0.45408
G1 X111.45 Y114.777 E1.32838
G1 X111.24 Y115.117 F7800
G1 E.32838 F1200
G92 E0
G1 X110.462 Y110.969 F7800
G1 E1 F1200
;TYPE:Perimeter
;WIDTH:0.560658
G1 F1800
G1 X110.462 Y110.462 E1.02672
G1 X110.969 Y110.462 E1.05344
G1 X110.969 Y110.969 E1.08016
G1 X110.522 Y110.969 E1.10372
G1 X110.024 Y111.589 F7800
;TYPE:External perimeter
;WIDTH:0.419999
G1 F1800
G1 X110.025 Y110.715 E1.137
G1 X110.049 Y110.215 E1.15606
G1 X110.159 Y110.081 E1.16266
G1 X110.251 Y110.053 E1.16632
G1 X110.715 Y110.025 E1.18402
;WIDTH:0.455715
G1 X111.133 Y110.043 E1.2015
;WIDTH:0.49143
G1 X111.551 Y110.061 E1.22054
G1 X111.478 Y110.169 E1.22647
;WIDTH:0.455715
G1 X111.405 Y110.276 E1.23188
;WIDTH:0.419999
G1 X111.405 Y111.405 E1.27487
G1 X110.205 Y111.405 E1.32056
G1 X110.066 Y111.546 E1.3281
G1 X110.02 Y111.149 F7800
G1 E.3281 F1200
G92 E0
G1 X114.031 Y110.969 F7800
G1 E1 F1200
;TYPE:Perimeter
;WIDTH:0.559575
G1 F1800
G1 X114.031 Y110.461 E1.02671
G1 X114.537 Y110.461 E1.05332
G1 X114.537 Y110.969 E1.08003
G1 X114.091 Y110.969 E1.10348
G1 X113.595 Y111.405 F7800
;TYPE:External perimeter
;WIDTH:0.419999
G1 F1800
G1 X113.595 Y110.276 E1.14647
;WIDTH:0.454052
G1 X113.503 Y110.168 E1.15237
;WIDTH:0.488104
G1 X113.411 Y110.059 E1.15881
G1 X113.848 Y110.042 E1.17856
;WIDTH:0.454052
G1 X114.284 Y110.025 E1.19672
;WIDTH:0.419999
G1 X114.794 Y110.051 E1.21616
G1 X114.914 Y110.145 E1.22196
G1 X114.973 Y110.344 E1.22986
G1 X114.976 Y111.588 E1.27723
G1 X114.795 Y111.405 E1.28703
G1 X113.655 Y111.405 E1.33044
G1 X113.595 Y111.01 F7800
G1 E.33044 F1200
G92 E0
G1 X114.031 Y114.538 F7800
G1 E1 F1200
;TYPE:Perimeter
;WIDTH:0.560549
G1 F1800
G1 X114.031 Y114.031 E1.02671
G1 X114.538 Y114.031 E1.05342
G1 X114.538 Y114.538 E1.08013
G1 X114.091 Y114.538 E1.10368
G1 X113.449 Y114.939 F7800
;TYPE:External perimeter
;WIDTH:0.49145
G1 F1800
G1 X113.522 Y114.831 E1.10961
;WIDTH:0.455725
G1 X113.595 Y114.724 E1.11502
;WIDTH:0.419999
G1 X113.595 Y113.595 E1.15801
G1 X114.795 Y113.595 E1.2037
G1 X114.975 Y113.443 E1.21267
G1 X114.975 Y114.285 E1.24473
G1 X114.951 Y114.786 E1.26383
G1 X114.841 Y114.919 E1.2704
G1 X114.75 Y114.946 E1.27401
G1 X114.285 Y114.975 E1.29175
;WIDTH:0.455725
G1 X113.867 Y114.957 E1.30923
;WIDTH:0.49145
G1 X113.509 Y114.942 E1.32553
G1 X113.602 Y114.553 F7800
;LAYER_CHANGE
;Z:0.55
;HEIGHT:0.3
G1 E.32553 F1200
G92 E0
G1 Z.55 F7800
G1 X119.841 Y120.159
G1 E1 F1200
;TYPE:Perimeter
;WIDTH:0.496691
G1 F3600
G1 X119.754 Y120.205 E1.00531
;WIDTH:0.543383
G1 X119.53 Y120.324 E1.02046
;WIDTH:0.554476
G1 X119.378 Y120.349 E1.02988
;WIDTH:0.554903
G1 X105.807 Y120.345 E1.86016
;WIDTH:0.571421
G1 X105.635 Y120.33 E1.87108
G1 X105.53 Y120.282 E1.87838
;WIDTH:0.536616
G1 X105.426 Y120.235 E1.8851
;WIDTH:0.501812
G1 X105.266 Y120.11 E1.89618
;WIDTH:0.475906
G1 X105.106 Y119.985 E1.9066
;WIDTH:0.488855
G1 X104.848 Y119.63 E1.92983
;WIDTH:0.529548
G1 X104.798 Y119.513 E1.93721
;WIDTH:0.570242
G1 X104.749 Y119.396 E1.94521
G1 X104.743 Y119.286 E1.95216
;WIDTH:0.563539
G1 X104.743 Y105.714 E2.79712
;WIDTH:0.57698
G1 X104.755 Y105.558 E2.80712
G1 X104.84 Y105.411 E2.81798
;WIDTH:0.534653
G1 X104.925 Y105.263 E2.82799
;WIDTH:0.492326
G1 X105.01 Y105.116 E2.83705
;WIDTH:0.45
G1 X105.171 Y104.947 E2.84828
;WIDTH:0.472842
G1 X105.43 Y104.779 E2.86401
;WIDTH:0.517155
G1 X105.564 Y104.72 E2.87228
;WIDTH:0.561468
G1 X105.698 Y104.661 E2.88136
G1 X105.807 Y104.655 E2.88813
;WIDTH:0.55483
G1 X119.377 Y104.652 E3.71823
;WIDTH:0.570191
G1 X119.55 Y104.667 E3.72919
G1 X119.655 Y104.715 E3.73647
;WIDTH:0.535538
G1 X119.76 Y104.762 E3.74323
;WIDTH:0.500886
G1 X119.912 Y104.878 E3.75364
;WIDTH:0.475443
G1 X120.063 Y104.994 E3.7634
;WIDTH:0.476465
G1 X120.203 Y105.179 E3.77532
;WIDTH:0.50293
G1 X120.344 Y105.364 E3.78804
;WIDTH:0.531114
G1 X120.382 Y105.46 E3.79405
;WIDTH:0.559298
G1 X120.421 Y105.556 E3.80045
G1 X120.433 Y105.71 E3.80999
;WIDTH:0.546101
G1 X120.433 Y119.288 E4.62579
G1 X120.402 Y119.455 E4.636
;WIDTH:0.53001
G1 X120.274 Y119.691 E4.65159
;WIDTH:0.490005
G1 X120.145 Y119.926 E4.66582
;WIDTH:0.45
G1 X119.977 Y120.087 E4.67701
;WIDTH:0.496691
G1 X119.894 Y120.131 E4.68208
G1 X119.661 Y119.823 F7800
;TYPE:External perimeter
;WIDTH:0.45
G1 F1800
G1 X119.379 Y119.911 E4.69629
G1 X105.807 Y119.907 E5.34906
G1 X105.537 Y119.838 E5.36246
G1 X105.288 Y119.618 E5.37844
G1 X105.185 Y119.286 E5.39516
G1 X105.185 Y105.714 E6.04793
G1 X105.288 Y105.382 E6.06465
G1 X105.537 Y105.162 E6.08063
G1 X105.807 Y105.093 E6.09403
G1 X119.377 Y105.089 E6.7467
G1 X119.649 Y105.158 E6.7602
G1 X119.897 Y105.378 E6.77614
G1 X120 Y105.71 E6.79286
G1 X120 Y119.288 E7.44591
G1 X119.931 Y119.56 E7.45941
G1 X119.716 Y119.802 E7.47498
G1 X119.328 Y119.898 F7800
G1 X119.884 Y120.533
;TYPE:Perimeter
;WIDTH:0.394875
G1 F900
G1 X120.224 Y120.345 E7.49099
G1 X120.326 Y120.248 E7.49679
G1 X120.605 Y119.83 E7.51751
G1 X120.586 Y120.505 E7.54535
G1 X120.48 Y120.533 E7.54987
G1 X119.944 Y120.533 E7.57196
G1 E6.57196 F1200
G92 E0
G1 X120.606 Y105.176 F7800
G1 E1 F1200
;WIDTH:0.394053
G1 F900
G1 X120.434 Y104.865 E1.01461
G1 X120.321 Y104.747 E1.02133
G1 X119.893 Y104.468 E1.04234
G1 X120.567 Y104.48 E1.07006
G1 X120.606 Y104.605 E1.07544
G1 X120.606 Y105.116 E1.09645
G1 E.09645 F1200
G92 E0
G1 X104.55 Y105.222 F7800
G1 E1 F1200
;WIDTH:0.405259
G1 F900
G1 X104.569 Y104.5 E1.03071
G1 X104.67 Y104.476 E1.03512
G1 X105.276 Y104.476 E1.06088
G1 X104.908 Y104.696 E1.07911
G1 X104.747 Y104.865 E1.08903
G1 X104.579 Y105.169 E1.1038
G1 E.1038 F1200
G92 E0
G1 X105.276 Y120.525 F7800
G1 E1 F1200
;WIDTH:0.405264
G1 F900
G1 X104.575 Y120.505 E1.02982
G1 X104.55 Y120.404 E1.03424
G1 X104.55 Y119.778 E1.06086
G1 X104.747 Y120.135 E1.0782
G1 X104.844 Y120.236 E1.08415
G1 X105.226 Y120.491 E1.10368
G1 E.10368 F1200
G92 E0
G1 X120.64 Y104.141 F7800
G1 E1 F1200
;WIDTH:0.45
G1 F3600
G1 X120.775 Y104.187 E1.00686
G1 X120.923 Y104.353 E1.01756
G1 X120.963 Y104.605 E1.02983
G1 X120.963 Y104.796 E1.03902
;WIDTH:0.49805
G1 X120.939 Y105.253 E1.06377
;WIDTH:0.546101
G1 X120.915 Y105.71 E1.09127
G1 X120.915 Y119.288 E1.90707
G1 X120.934 Y119.522 E1.92118
;WIDTH:0.508533
G1 X120.953 Y119.755 E1.93413
;WIDTH:0.470965
G1 X120.963 Y120.444 E1.96907
;WIDTH:0.45
G1 X120.882 Y120.708 E1.98235
G1 X120.719 Y120.851 E1.99278
G1 X120.299 Y120.891 E2.01307
;WIDTH:0.484825
G1 X119.992 Y120.874 E2.02919
;WIDTH:0.51965
G1 X119.685 Y120.856 E2.04665
;WIDTH:0.554476
G1 X119.378 Y120.839 E2.06544
;WIDTH:0.554903
G1 X105.807 Y120.835 E2.89572
G1 X105.573 Y120.849 E2.91006
;WIDTH:0.528357
G1 X105.339 Y120.862 E2.92362
;WIDTH:0.501812
G1 X104.987 Y120.875 E2.94284
;WIDTH:0.475906
G1 X104.634 Y120.888 E2.96097
;WIDTH:0.45
G1 X104.37 Y120.806 E2.97427
G1 X104.227 Y120.643 E2.9847
G1 X104.187 Y120.214 E3.00542
;WIDTH:0.487846
G1 X104.206 Y119.905 E3.02177
;WIDTH:0.525692
G1 X104.225 Y119.595 E3.03964
;WIDTH:0.563538
G1 X104.243 Y119.286 E3.05891
G1 X104.243 Y105.714 E3.90387
G1 X104.23 Y105.503 E3.91703
;WIDTH:0.537514
G1 X104.217 Y105.291 E3.92956
;WIDTH:0.51149
